src/assets/icons/convex.svg

<svg
  width="184"
  height="188"
  viewBox="30 30 124 128"
  fill="none"
  xmlns="http://www.w3.org/2000/svg"
>
  <path
    d="M108.092 130.021C126.258 128.003 143.385 118.323 152.815 102.167C148.349 142.128 104.653 167.385 68.9858 151.878C65.6992 150.453 62.8702 148.082 60.9288 145.034C52.9134 132.448 50.2786 116.433 54.0644 101.899C64.881 120.567 86.8748 132.01 108.092 130.021Z"
    fill="#F3B01C"></path>
  <path
    d="M53.4012 90.1735C46.0375 107.191 45.7186 127.114 54.7463 143.51C22.9759 119.608 23.3226 68.4578 54.358 44.7949C57.2286 42.6078 60.64 41.3097 64.2178 41.1121C78.9312 40.336 93.8804 46.0225 104.364 56.6193C83.0637 56.831 62.318 70.4756 53.4012 90.1735Z"
    fill="#8D2676"></path>
  <path
    d="M114.637 61.8552C103.89 46.8701 87.0686 36.6684 68.6387 36.358C104.264 20.1876 148.085 46.4045 152.856 85.1654C153.3 88.7635 152.717 92.4322 151.122 95.6775C144.466 109.195 132.124 119.679 117.702 123.559C128.269 103.96 126.965 80.0151 114.637 61.8552Z"
    fill="#EE342F"></path>
</svg>

<svg xmlns="http://www.w3.org/2000/svg" width="184" height="188" fill="none" viewBox="30 30 124 128"><path fill="#f3b01c" d="M108 130a59 59 0 0 0 44.8-27.8c-4.5 40-48.1 65.2-83.8 49.7a18 18 0 0 1-8-6.9 55 55 0 0 1-7-43.1 58 58 0 0 0 54 28.1"/><path fill="#8d2676" d="M53.4 90.2a61 61 0 0 0 1.3 53.3 63.5 63.5 0 0 1-.3-98.7q4.3-3.4 9.8-3.7c14.7-.8 29.7 5 40.2 15.5a58 58 0 0 0-51 33.6"/><path fill="#ee342f" d="M114.6 61.9a59 59 0 0 0-46-25.5c35.7-16.2 79.5 10 84.3 48.8q.6 5.5-1.8 10.5c-6.6 13.5-19 24-33.4 27.9a60 60 0 0 0-3-61.7"/></svg>
